packages/assets/static/images/icons/arrows-in-simple.svg

<svg width="24" height="24" viewBox="0 0 24 24" xmlns="http://www.w3.org/2000/svg">
<path d="M20.0306 5.03055L15.3103 9.74993H18C18.1989 9.74993 18.3897 9.82895 18.5303 9.9696C18.671 10.1103 18.75 10.301 18.75 10.4999C18.75 10.6988 18.671 10.8896 18.5303 11.0303C18.3897 11.1709 18.1989 11.2499 18 11.2499H13.5C13.3011 11.2499 13.1103 11.1709 12.9697 11.0303C12.829 10.8896 12.75 10.6988 12.75 10.4999V5.99993C12.75 5.80102 12.829 5.61025 12.9697 5.4696C13.1103 5.32895 13.3011 5.24993 13.5 5.24993C13.6989 5.24993 13.8897 5.32895 14.0303 5.4696C14.171 5.61025 14.25 5.80102 14.25 5.99993V8.68962L18.9694 3.9693C19.1101 3.82857 19.301 3.74951 19.5 3.74951C19.699 3.74951 19.8899 3.82857 20.0306 3.9693C20.1713 4.11003 20.2504 4.30091 20.2504 4.49993C20.2504 4.69895 20.1713 4.88982 20.0306 5.03055ZM10.5 12.7499H5.99999C5.80108 12.7499 5.61031 12.8289 5.46966 12.9696C5.32901 13.1103 5.24999 13.301 5.24999 13.4999C5.24999 13.6988 5.32901 13.8896 5.46966 14.0303C5.61031 14.1709 5.80108 14.2499 5.99999 14.2499H8.68968L3.96936 18.9693C3.82863 19.11 3.74957 19.3009 3.74957 19.4999C3.74957 19.699 3.82863 19.8898 3.96936 20.0306C4.1101 20.1713 4.30097 20.2503 4.49999 20.2503C4.69901 20.2503 4.88988 20.1713 5.03061 20.0306L9.74999 15.3102V17.9999C9.74999 18.1988 9.82901 18.3896 9.96966 18.5303C10.1103 18.6709 10.3011 18.7499 10.5 18.7499C10.6989 18.7499 10.8897 18.6709 11.0303 18.5303C11.171 18.3896 11.25 18.1988 11.25 17.9999V13.4999C11.25 13.301 11.171 13.1103 11.0303 12.9696C10.8897 12.8289 10.6989 12.7499 10.5 12.7499Z"/>
</svg>

<svg viewBox="0 0 24 24" xmlns="http://www.w3.org/2000/svg" aria-hidden="true" fill="currentColor"><path d="m20.03 5.03-4.72 4.72H18a.75.75 0 1 1 0 1.5h-4.5a.75.75 0 0 1-.75-.75V6a.75.75 0 1 1 1.5 0v2.69l4.72-4.72a.75.75 0 1 1 1.06 1.06m-9.53 7.72H6a.75.75 0 1 0 0 1.5h2.69l-4.72 4.72a.75.75 0 1 0 1.06 1.06l4.72-4.72V18a.75.75 0 0 0 1.5 0v-4.5a.75.75 0 0 0-.75-.75"/></svg>
